build/svg/cmd/lc_numberformatpercent.svg

<?xml version="1.0" encoding="UTF-8" standalone="no"?>
<svg
   xmlns:dc="http://purl.org/dc/elements/1.1/"
   xmlns:cc="http://creativecommons.org/ns#"
   xmlns:rdf="http://www.w3.org/1999/02/22-rdf-syntax-ns#"
   xmlns:svg="http://www.w3.org/2000/svg"
   xmlns="http://www.w3.org/2000/svg"
   xmlns:sodipodi="http://sodipodi.sourceforge.net/DTD/sodipodi-0.dtd"
   xmlns:inkscape="http://www.inkscape.org/namespaces/inkscape"
   viewBox="0 0 24 24"
   version="1.1"
   id="svg4"
   sodipodi:docname="lc_numberformatpercent.svg"
   inkscape:version="0.92.5 (2060ec1f9f, 2020-04-08)"
   inkscape:export-filename="/home/jupiter007/Libreoffice yaru theme fullcolor/build/cmd/lc_numberformatpercent.png"
   inkscape:export-xdpi="96"
   inkscape:export-ydpi="96">
  <metadata
     id="metadata10">
    <rdf:RDF>
      <cc:Work
         rdf:about="">
        <dc:format>image/svg+xml</dc:format>
        <dc:type
           rdf:resource="http://purl.org/dc/dcmitype/StillImage" />
      </cc:Work>
    </rdf:RDF>
  </metadata>
  <defs
     id="defs8" />
  <sodipodi:namedview
     pagecolor="#ffffff"
     bordercolor="#666666"
     borderopacity="1"
     objecttolerance="10"
     gridtolerance="10"
     guidetolerance="10"
     inkscape:pageopacity="0"
     inkscape:pageshadow="2"
     inkscape:window-width="1920"
     inkscape:window-height="1011"
     id="namedview6"
     showgrid="true"
     inkscape:zoom="39.333332"
     inkscape:cx="14.971742"
     inkscape:cy="12.385289"
     inkscape:window-x="0"
     inkscape:window-y="32"
     inkscape:window-maximized="1"
     inkscape:current-layer="svg4">
    <inkscape:grid
       type="xygrid"
       id="grid817" />
  </sodipodi:namedview>
  <path
     sodipodi:nodetypes="cccscsccccccccscscccccc"
     inkscape:connector-curvature="0"
     id="path4237-1"
     d="M 6.994116,2.9997085 C 5.735916,3.0142085 4.815225,2.9691045 4.062475,3.3844741 3.686105,3.5921341 3.389244,3.943861 3.224584,4.382521 3.059914,4.821191 2.999975,5.3421085 2.999975,5.9997085 V 7.4879896 18.000292 c 0,0.657609 0.0599,1.178576 0.224609,1.617188 0.16468,0.438611 0.461531,0.788523 0.837891,0.996092 0.75272,0.415131 1.673541,0.37165 2.931641,0.386719 h 0.002 10.005859 0.0039 c 1.25819,-0.0145 2.178891,0.0306 2.931641,-0.384766 0.37637,-0.20766 0.673221,-0.559386 0.837891,-0.998045 0.164539,-0.438671 0.224618,-0.959579 0.224618,-1.617188 V 7.4665056 5.9997085 c 0,-0.6576 -0.0599,-1.1785775 -0.224609,-1.6171875 -0.16468,-0.4386 -0.461531,-0.7885338 -0.837891,-0.9960937 -0.75277,-0.41513 -1.673601,-0.3716388 -2.931691,-0.3867188 h -0.002 -10.0058591 z"
     style="font-style:normal;font-variant:normal;font-weight:normal;font-stretch:normal;font-size:15px;line-height:125%;font-family:Ubuntu;-inkscape-font-specification:Ubuntu;text-align:center;letter-spacing:0px;word-spacing:0px;writing-mode:lr-tb;text-anchor:middle;display:inline;opacity:0.6;fill:#000000;fill-opacity:1;stroke:none;stroke-width:0.99980211" />
  <path
     inkscape:connector-curvature="0"
     id="path1993"
     d="M 11.983344,4.0268933 C 10.426763,4.0376893 6.873354,4.0151413 5.323403,4.0656683 4.862174,4.1083363 4.307215,4.2720877 4.168063,4.7756351 3.949069,5.4109815 4.059649,6.1094223 4.022267,6.7575594 c -0.0078,2.2970846 -0.02297,9.5964286 0.02152,11.8857796 0.0391,0.461929 0.202551,1.012666 0.698756,1.163666 0.632456,0.225082 1.284144,0.12274 1.935974,0.154298 1.424235,0.0068 4.850563,0.01102 6.27642,0.01131 1.704531,3.5e-4 3.408388,-0.005 5.10719,-0.01851 0.511911,-0.01201 1.183699,0.01993 1.584745,-0.405191 0.421097,-0.539783 0.287073,-1.268021 0.322745,-1.903787 0.01187,-2.444323 0.02769,-9.9110954 -0.0219,-12.356795 C 19.898441,4.8862907 19.777725,4.4253789 19.372578,4.2438558 18.704409,3.9497584 17.946373,4.0758369 17.246657,4.0382831 15.49225,4.0264805 13.737783,4.0257987 11.983344,4.0268933 Z"
     style="opacity:1;vector-effect:none;fill:#d85eca;fill-opacity:1;stroke:none;stroke-width:1;stroke-linecap:round;stroke-linejoin:bevel;stroke-miterlimit:4;stroke-dasharray:none;stroke-dashoffset:0;stroke-opacity:1"
     sodipodi:nodetypes="cccccccsccccccc" />
  <path
     style="opacity:1;fill:#ffffff;fill-opacity:1;stroke:none;stroke-width:8.77999973;stroke-linejoin:round;stroke-miterlimit:4;stroke-dasharray:none;stroke-opacity:1"
     d="M 9 7 C 7.892 7 7 7.892 7 9 L 7 10 C 7 11.108 7.892 12 9 12 C 10.108 12 11 11.108 11 10 L 11 9 C 11 7.892 10.108 7 9 7 z M 9 8 C 9.554 8 10 8.5344187 10 9.1992188 L 10 9.8007812 C 10 10.465581 9.554 11 9 11 C 8.446 11 8 10.465581 8 9.8007812 L 8 9.1992188 C 8 8.5344187 8.446 8 9 8 z "
     id="rect828" />
  <path
     id="path833"
     d="m 15,12 c -1.108,0 -2,0.892 -2,2 v 1 c 0,1.108 0.892,2 2,2 1.108,0 2,-0.892 2,-2 v -1 c 0,-1.108 -0.892,-2 -2,-2 z m 0,1 c 0.554,0 1,0.534419 1,1.199219 v 0.601562 C 16,15.465581 15.554,16 15,16 14.446,16 14,15.465581 14,14.800781 V 14.199219 C 14,13.534419 14.446,13 15,13 Z"
     style="opacity:1;fill:#ffffff;fill-opacity:1;stroke:none;stroke-width:8.77999973;stroke-linejoin:round;stroke-miterlimit:4;stroke-dasharray:none;stroke-opacity:1"
     inkscape:connector-curvature="0" />
  <rect
     style="opacity:1;fill:#ffffff;fill-opacity:1;stroke:none;stroke-width:8.77999973;stroke-linejoin:round;stroke-miterlimit:4;stroke-dasharray:none;stroke-opacity:1"
     id="rect835"
     width="1"
     height="12"
     x="16.470564"
     y="-6.0000005"
     ry="0.5"
     transform="rotate(45)" />
</svg>

<svg xmlns="http://www.w3.org/2000/svg" viewBox="0 0 24 24"><path d="M6.994 3c-1.258.014-2.179-.03-2.932.384a1.88 1.88 0 00-.837.999C3.06 4.82 3 5.343 3 6v12c0 .658.06 1.179.225 1.617.164.44.461.789.837.997.753.415 1.674.371 2.932.386h10.012c1.258-.014 2.179.03 2.932-.384a1.88 1.88 0 00.837-.999c.165-.438.225-.96.225-1.617V6c0-.658-.06-1.179-.225-1.617a1.875 1.875 0 00-.837-.997c-.753-.415-1.674-.371-2.932-.386H6.998z" style="line-height:125%;-inkscape-font-specification:Ubuntu;text-align:center" font-weight="400" font-size="15" font-family="Ubuntu" letter-spacing="0" word-spacing="0" text-anchor="middle" opacity=".6"/><path d="M11.983 4.027c-1.556.01-5.11-.012-6.66.039-.46.042-1.016.206-1.155.71-.219.635-.108 1.333-.146 1.982-.008 2.297-.023 9.596.022 11.885.039.462.202 1.013.699 1.164.632.225 1.284.123 1.936.154 1.424.007 4.85.011 6.276.012 1.704 0 3.408-.005 5.107-.019.512-.012 1.184.02 1.585-.405.421-.54.287-1.268.323-1.904.011-2.444.027-9.911-.022-12.357-.05-.402-.17-.863-.575-1.044-.669-.294-1.427-.168-2.126-.206a715.985 715.985 0 00-5.264-.011z" fill="#d85eca"/><path d="M9 7c-1.108 0-2 .892-2 2v1c0 1.108.892 2 2 2s2-.892 2-2V9c0-1.108-.892-2-2-2zm0 1c.554 0 1 .534 1 1.2v.6c0 .666-.446 1.2-1 1.2s-1-.534-1-1.2v-.6C8 8.533 8.446 8 9 8zM15 12c-1.108 0-2 .892-2 2v1c0 1.108.892 2 2 2s2-.892 2-2v-1c0-1.108-.892-2-2-2zm0 1c.554 0 1 .534 1 1.2v.6c0 .666-.446 1.2-1 1.2s-1-.534-1-1.2v-.6c0-.666.446-1.2 1-1.2z" fill="#fff"/><rect width="1" height="12" x="16.471" y="-6" ry=".5" transform="rotate(45)" fill="#fff"/></svg>
